X: 44
T: JIG: Humours of Glendart
C: C: Trad.; S: Various
C: Set Leaders: Mars, Tania, Sophie, Anton
Z: Mars Agliullin ed.; Will Harmon at The Session
N: https://thesession.org/members/26966/sets/94272
R: Jig
M: 6/8
L: 1/8
Q: 3/8=116
K: Dmaj
|:BAF AFD|FEF DFA|BAF AFD|FED E2A|
BAF AFD|FEF DFA|dcB AFE|FDD D2A:||
|:def d2B|AFA AFA|def def|ede fdB|
def d2B|AFA ABc|dcB AFE|FDD D2A:||

